X:1
T:T
T:Je vais donc vous quitter / d'Estelle
T:Lied / HS.81.Vanpelt.331
T:Een speelmansboek uit Maastricht/Tongeren (1786-1824) 
T:BRON: Lusthof-der-muziek.blogspot.com: Handschrift van VanPelt (1786-1824)  / Transcriptie door Ad Kwakernaat (2015) 
T:Naar een origineel van Loiseau de Persuis Louis-Luc (1769-1819) 
T:Genoteerd door Van der Elst Johan
Z:Een speelmansboek uit Maastricht/Tongeren (1786-1824)
Z:Genoteerd door Van der Elst Johan
L:1/8
Q:1/4=100
M:2/4
K:Eb
V:1 treble nm="Viool" snm="Vl."
V:1
 G2 G2 | c2 eg | gf ed | f2 e2 | c2 de | ed z2 | fd ec | cB =B2 | G2 G2 | c2 eg | gf ed | fe e2 | %12
 ce eg | af af | d3 c | c2 =B2 | fd d=B | c3 g | ge ec | c=B B2 | fd d=B | c2 d2 | e2 =e2 | f2 z2 | %24
 fa fd | =B2 cg | gf fe | ed d2 | %28
"_BRON: Alamire uitgave \"Speelmansboek uit Maastricht\"\n vermeldt bij concordatie:\n             Loiseau de Persuis Louis-Luc (1769-1819), \nEstelle, \n(1783)\n" G2 G2 | %29
 c2 eg | gf ed | f2 e2 | c3 e | ed fa | ag =Bd | d2 c2 |] %36

